images/51059581.svg

<?xml version="1.0" encoding="UTF-8"?>
<svg xmlns="http://www.w3.org/2000/svg" xmlns:xlink="http://www.w3.org/1999/xlink" width="300pt" height="300pt" viewBox="0 0 300 300" version="1.1">
<defs>
<g>
<symbol overflow="visible" id="glyph0-0">
<path style="stroke:none;" d="M 0.75 2.65625 L 0.75 -10.578125 L 8.25 -10.578125 L 8.25 2.65625 Z M 1.59375 1.8125 L 7.40625 1.8125 L 7.40625 -9.734375 L 1.59375 -9.734375 Z M 1.59375 1.8125 "/>
</symbol>
<symbol overflow="visible" id="glyph0-1">
<path style="stroke:none;" d="M 1.46875 -10.9375 L 7.75 -10.9375 L 7.75 -9.6875 L 2.953125 -9.6875 L 2.953125 -6.46875 L 7.28125 -6.46875 L 7.28125 -5.21875 L 2.953125 -5.21875 L 2.953125 0 L 1.46875 0 Z M 1.46875 -10.9375 "/>
</symbol>
<symbol overflow="visible" id="glyph0-2">
<path style="stroke:none;" d="M 1.46875 -10.9375 L 3.46875 -10.9375 L 8.3125 -1.78125 L 8.3125 -10.9375 L 9.75 -10.9375 L 9.75 0 L 7.75 0 L 2.90625 -9.140625 L 2.90625 0 L 1.46875 0 Z M 1.46875 -10.9375 "/>
</symbol>
<symbol overflow="visible" id="glyph0-3">
<path style="stroke:none;" d="M 1.46875 -10.9375 L 2.953125 -10.9375 L 2.953125 -6.453125 L 8.328125 -6.453125 L 8.328125 -10.9375 L 9.8125 -10.9375 L 9.8125 0 L 8.328125 0 L 8.328125 -5.203125 L 2.953125 -5.203125 L 2.953125 0 L 1.46875 0 Z M 1.46875 -10.9375 "/>
</symbol>
<symbol overflow="visible" id="glyph1-0">
<path style="stroke:none;" d="M 0.59375 2.125 L 0.59375 -8.46875 L 6.59375 -8.46875 L 6.59375 2.125 Z M 1.265625 1.453125 L 5.9375 1.453125 L 5.9375 -7.78125 L 1.265625 -7.78125 Z M 1.265625 1.453125 "/>
</symbol>
<symbol overflow="visible" id="glyph1-1">
<path style="stroke:none;" d="M 2.296875 -1 L 6.4375 -1 L 6.4375 0 L 0.875 0 L 0.875 -1 C 1.320312 -1.457031 1.929688 -2.078125 2.703125 -2.859375 C 3.484375 -3.648438 3.972656 -4.160156 4.171875 -4.390625 C 4.554688 -4.804688 4.820312 -5.160156 4.96875 -5.453125 C 5.125 -5.753906 5.203125 -6.046875 5.203125 -6.328125 C 5.203125 -6.796875 5.035156 -7.175781 4.703125 -7.46875 C 4.378906 -7.757812 3.957031 -7.90625 3.4375 -7.90625 C 3.0625 -7.90625 2.664062 -7.84375 2.25 -7.71875 C 1.84375 -7.59375 1.40625 -7.394531 0.9375 -7.125 L 0.9375 -8.328125 C 1.414062 -8.515625 1.859375 -8.65625 2.265625 -8.75 C 2.679688 -8.851562 3.0625 -8.90625 3.40625 -8.90625 C 4.3125 -8.90625 5.035156 -8.675781 5.578125 -8.21875 C 6.117188 -7.769531 6.390625 -7.164062 6.390625 -6.40625 C 6.390625 -6.050781 6.320312 -5.710938 6.1875 -5.390625 C 6.050781 -5.066406 5.804688 -4.6875 5.453125 -4.25 C 5.347656 -4.132812 5.035156 -3.804688 4.515625 -3.265625 C 3.992188 -2.722656 3.253906 -1.96875 2.296875 -1 Z M 2.296875 -1 "/>
</symbol>
</g>
</defs>
<g id="surface11725">
<rect x="0" y="0" width="300" height="300" style="fill:rgb(100%,100%,100%);fill-opacity:1;stroke:none;"/>
<path style="fill:none;stroke-width:1.2;stroke-linecap:butt;stroke-linejoin:miter;stroke:rgb(20%,80%,80%);stroke-opacity:1;stroke-miterlimit:10;" d="M 252.75 216.804688 L 246.875 199.707031 "/>
<path style="fill:none;stroke-width:1.2;stroke-linecap:butt;stroke-linejoin:miter;stroke:rgb(0%,0%,0%);stroke-opacity:1;stroke-miterlimit:10;" d="M 246.875 199.707031 L 241.003906 182.605469 "/>
<path style=" stroke:none;fill-rule:nonzero;fill:rgb(100%,100%,100%);fill-opacity:1;" d="M 248.75 207.804688 L 257.75 207.804688 L 257.75 225.804688 L 248.75 225.804688 Z M 248.75 207.804688 "/>
<g style="fill:rgb(20%,80%,80%);fill-opacity:1;">
  <use xlink:href="#glyph0-1" x="248.75" y="221.418945"/>
</g>
<path style="fill:none;stroke-width:1.2;stroke-linecap:butt;stroke-linejoin:miter;stroke:rgb(0%,0%,0%);stroke-opacity:1;stroke-miterlimit:10;" d="M 241.003906 182.605469 L 205.515625 175.675781 "/>
<path style="fill:none;stroke-width:1.2;stroke-linecap:butt;stroke-linejoin:miter;stroke:rgb(0%,0%,0%);stroke-opacity:1;stroke-miterlimit:10;" d="M 239.085938 173.5625 L 210.691406 168.019531 "/>
<path style="fill:none;stroke-width:1.2;stroke-linecap:butt;stroke-linejoin:miter;stroke:rgb(0%,0%,0%);stroke-opacity:1;stroke-miterlimit:10;" d="M 264.75 155.335938 L 241.003906 182.605469 "/>
<path style="fill:none;stroke-width:1.2;stroke-linecap:butt;stroke-linejoin:miter;stroke:rgb(0%,0%,0%);stroke-opacity:1;stroke-miterlimit:10;" d="M 205.515625 175.675781 L 193.769531 141.476562 "/>
<path style="fill:none;stroke-width:1.2;stroke-linecap:butt;stroke-linejoin:miter;stroke:rgb(0%,0%,0%);stroke-opacity:1;stroke-miterlimit:10;" d="M 193.769531 141.476562 L 177.132812 134.398438 "/>
<path style="fill:none;stroke-width:1.2;stroke-linecap:butt;stroke-linejoin:miter;stroke:rgb(0%,0%,100%);stroke-opacity:1;stroke-miterlimit:10;" d="M 177.132812 134.398438 L 160.496094 127.320312 "/>
<path style="fill:none;stroke-width:1.2;stroke-linecap:butt;stroke-linejoin:miter;stroke:rgb(0%,0%,0%);stroke-opacity:1;stroke-miterlimit:10;" d="M 217.515625 114.207031 L 193.769531 141.476562 "/>
<path style="fill:none;stroke-width:1.2;stroke-linecap:butt;stroke-linejoin:miter;stroke:rgb(0%,0%,0%);stroke-opacity:1;stroke-miterlimit:10;" d="M 221.558594 122.519531 L 202.5625 144.335938 "/>
<path style="fill:none;stroke-width:1.2;stroke-linecap:butt;stroke-linejoin:miter;stroke:rgb(0%,0%,100%);stroke-opacity:1;stroke-miterlimit:10;" d="M 160.496094 127.320312 L 162.085938 109.308594 "/>
<path style="fill:none;stroke-width:1.2;stroke-linecap:butt;stroke-linejoin:miter;stroke:rgb(0%,0%,0%);stroke-opacity:1;stroke-miterlimit:10;" d="M 162.085938 109.308594 L 163.675781 91.300781 "/>
<path style="fill:none;stroke-width:1.2;stroke-linecap:butt;stroke-linejoin:miter;stroke:rgb(0%,0%,100%);stroke-opacity:1;stroke-miterlimit:10;" d="M 160.496094 127.320312 L 144.988281 136.617188 "/>
<path style="fill:none;stroke-width:1.2;stroke-linecap:butt;stroke-linejoin:miter;stroke:rgb(0%,0%,0%);stroke-opacity:1;stroke-miterlimit:10;" d="M 144.988281 136.617188 L 129.484375 145.917969 "/>
<path style=" stroke:none;fill-rule:nonzero;fill:rgb(100%,100%,100%);fill-opacity:1;" d="M 155.496094 118.320312 L 166.496094 118.320312 L 166.496094 136.320312 L 155.496094 136.320312 Z M 155.496094 118.320312 "/>
<g style="fill:rgb(0%,0%,100%);fill-opacity:1;">
  <use xlink:href="#glyph0-2" x="155.496094" y="131.93457"/>
</g>
<path style="fill:none;stroke-width:1.2;stroke-linecap:butt;stroke-linejoin:miter;stroke:rgb(0%,0%,0%);stroke-opacity:1;stroke-miterlimit:10;" d="M 163.675781 91.300781 L 198.917969 83.195312 "/>
<path style="fill:none;stroke-width:1.2;stroke-linecap:butt;stroke-linejoin:miter;stroke:rgb(0%,0%,0%);stroke-opacity:1;stroke-miterlimit:10;" d="M 169.109375 98.78125 L 197.300781 92.296875 "/>
<path style="fill:none;stroke-width:1.2;stroke-linecap:butt;stroke-linejoin:miter;stroke:rgb(0%,0%,0%);stroke-opacity:1;stroke-miterlimit:10;" d="M 198.917969 83.195312 L 217.515625 114.207031 "/>
<path style="fill:none;stroke-width:1.2;stroke-linecap:butt;stroke-linejoin:miter;stroke:rgb(0%,0%,0%);stroke-opacity:1;stroke-miterlimit:10;" d="M 217.515625 114.207031 L 253.003906 121.132812 "/>
<path style="fill:none;stroke-width:1.2;stroke-linecap:butt;stroke-linejoin:miter;stroke:rgb(0%,0%,0%);stroke-opacity:1;stroke-miterlimit:10;" d="M 253.003906 121.132812 L 264.75 155.335938 "/>
<path style="fill:none;stroke-width:1.2;stroke-linecap:butt;stroke-linejoin:miter;stroke:rgb(0%,0%,0%);stroke-opacity:1;stroke-miterlimit:10;" d="M 246.132812 127.316406 L 255.527344 154.679688 "/>
<path style="fill:none;stroke-width:1.2;stroke-linecap:butt;stroke-linejoin:miter;stroke:rgb(0%,0%,0%);stroke-opacity:1;stroke-miterlimit:10;" d="M 129.484375 145.917969 L 113.679688 137.140625 "/>
<path style="fill:none;stroke-width:1.2;stroke-linecap:butt;stroke-linejoin:miter;stroke:rgb(0%,0%,100%);stroke-opacity:1;stroke-miterlimit:10;" d="M 113.679688 137.140625 L 97.871094 128.359375 "/>
<path style="fill:none;stroke-width:1.2;stroke-linecap:butt;stroke-linejoin:miter;stroke:rgb(0%,0%,0%);stroke-opacity:1;stroke-miterlimit:10;" d="M 122.191406 151.601562 L 109.546875 144.578125 "/>
<path style="fill:none;stroke-width:1.2;stroke-linecap:butt;stroke-linejoin:miter;stroke:rgb(0%,0%,100%);stroke-opacity:1;stroke-miterlimit:10;" d="M 109.546875 144.578125 L 96.902344 137.554688 "/>
<path style="fill:none;stroke-width:1.2;stroke-linecap:butt;stroke-linejoin:miter;stroke:rgb(0%,0%,0%);stroke-opacity:1;stroke-miterlimit:10;" d="M 130.085938 182.074219 L 129.484375 145.917969 "/>
<path style="fill:none;stroke-width:1.2;stroke-linecap:butt;stroke-linejoin:miter;stroke:rgb(0%,0%,100%);stroke-opacity:1;stroke-miterlimit:10;" d="M 97.871094 128.359375 L 82.367188 137.660156 "/>
<path style="fill:none;stroke-width:1.2;stroke-linecap:butt;stroke-linejoin:miter;stroke:rgb(0%,0%,0%);stroke-opacity:1;stroke-miterlimit:10;" d="M 82.367188 137.660156 L 66.863281 146.960938 "/>
<path style=" stroke:none;fill-rule:nonzero;fill:rgb(100%,100%,100%);fill-opacity:1;" d="M 92.871094 119.359375 L 103.871094 119.359375 L 103.871094 137.359375 L 92.871094 137.359375 Z M 92.871094 119.359375 "/>
<g style="fill:rgb(0%,0%,100%);fill-opacity:1;">
  <use xlink:href="#glyph0-2" x="92.871094" y="132.973633"/>
</g>
<path style="fill:none;stroke-width:1.2;stroke-linecap:butt;stroke-linejoin:miter;stroke:rgb(0%,0%,0%);stroke-opacity:1;stroke-miterlimit:10;" d="M 66.863281 146.960938 L 67.164062 165.035156 "/>
<path style="fill:none;stroke-width:1.2;stroke-linecap:butt;stroke-linejoin:miter;stroke:rgb(0%,0%,100%);stroke-opacity:1;stroke-miterlimit:10;" d="M 67.164062 165.035156 L 67.464844 183.113281 "/>
<path style="fill:none;stroke-width:1.2;stroke-linecap:butt;stroke-linejoin:miter;stroke:rgb(0%,0%,0%);stroke-opacity:1;stroke-miterlimit:10;" d="M 75.429688 150.433594 L 75.667969 164.894531 "/>
<path style="fill:none;stroke-width:1.2;stroke-linecap:butt;stroke-linejoin:miter;stroke:rgb(0%,0%,100%);stroke-opacity:1;stroke-miterlimit:10;" d="M 75.667969 164.894531 L 75.910156 179.359375 "/>
<path style="fill:none;stroke-width:1.2;stroke-linecap:butt;stroke-linejoin:miter;stroke:rgb(0%,0%,0%);stroke-opacity:1;stroke-miterlimit:10;" d="M 66.863281 146.960938 L 51.054688 138.179688 "/>
<path style="fill:none;stroke-width:1.2;stroke-linecap:butt;stroke-linejoin:miter;stroke:rgb(0%,0%,100%);stroke-opacity:1;stroke-miterlimit:10;" d="M 51.054688 138.179688 L 35.25 129.402344 "/>
<path style="fill:none;stroke-width:1.2;stroke-linecap:butt;stroke-linejoin:miter;stroke:rgb(0%,0%,100%);stroke-opacity:1;stroke-miterlimit:10;" d="M 67.464844 183.113281 L 83.269531 191.894531 "/>
<path style="fill:none;stroke-width:1.2;stroke-linecap:butt;stroke-linejoin:miter;stroke:rgb(0%,0%,0%);stroke-opacity:1;stroke-miterlimit:10;" d="M 83.269531 191.894531 L 99.074219 200.671875 "/>
<path style=" stroke:none;fill-rule:nonzero;fill:rgb(100%,100%,100%);fill-opacity:1;" d="M 62.464844 174.113281 L 73.464844 174.113281 L 73.464844 192.113281 L 62.464844 192.113281 Z M 62.464844 174.113281 "/>
<g style="fill:rgb(0%,0%,100%);fill-opacity:1;">
  <use xlink:href="#glyph0-2" x="62.464844" y="187.727539"/>
</g>
<path style="fill:none;stroke-width:1.2;stroke-linecap:butt;stroke-linejoin:miter;stroke:rgb(0%,0%,0%);stroke-opacity:1;stroke-miterlimit:10;" d="M 99.074219 200.671875 L 130.085938 182.074219 "/>
<path style="fill:none;stroke-width:1.2;stroke-linecap:butt;stroke-linejoin:miter;stroke:rgb(0%,0%,0%);stroke-opacity:1;stroke-miterlimit:10;" d="M 97.800781 191.515625 L 122.609375 176.636719 "/>
<path style=" stroke:none;fill-rule:nonzero;fill:rgb(100%,100%,100%);fill-opacity:1;" d="M 5.25 118.402344 L 35.25 118.402344 L 35.25 140.402344 L 5.25 140.402344 Z M 5.25 118.402344 "/>
<g style="fill:rgb(0%,0%,100%);fill-opacity:1;">
  <use xlink:href="#glyph0-3" x="5.25" y="132.016602"/>
</g>
<g style="fill:rgb(0%,0%,100%);fill-opacity:1;">
  <use xlink:href="#glyph1-1" x="16.282227" y="136.899414"/>
</g>
<g style="fill:rgb(0%,0%,100%);fill-opacity:1;">
  <use xlink:href="#glyph0-2" x="24.056641" y="132.016602"/>
</g>
</g>
</svg>

<svg xmlns="http://www.w3.org/2000/svg" xmlns:xlink="http://www.w3.org/1999/xlink" width="300pt" height="300pt" viewBox="0 0 300 300"><defs><symbol overflow="visible"><path d="M.75 2.656v-13.234h7.5V2.656zm.844-.844h5.812V-9.733H1.594zm0 0"/></symbol><symbol overflow="visible" id="a"><path d="M1.47-10.938h6.28v1.25H2.953v3.22H7.28v1.25H2.954V0H1.47zm0 0"/></symbol><symbol overflow="visible" id="b"><path d="M1.47-10.938h2L8.31-1.78v-9.158H9.75V0h-2L2.906-9.14V0H1.47zm0 0"/></symbol><symbol overflow="visible" id="c"><path d="M1.47-10.938h1.483v4.485h5.375v-4.484h1.485V0H8.328v-5.203H2.953V0H1.47zm0 0"/></symbol><symbol overflow="visible"><path d="M.594 2.125V-8.47h6V2.126zm.672-.672h4.671V-7.78h-4.67zm0 0"/></symbol><symbol overflow="visible" id="d"><path d="M2.297-1h4.14v1H.875v-1c.445-.457 1.055-1.078 1.828-1.86.78-.788 1.27-1.3 1.47-1.53.382-.415.647-.77.796-1.063.155-.3.233-.594.233-.875 0-.47-.168-.848-.5-1.14-.324-.29-.746-.438-1.266-.438-.374 0-.773.062-1.187.187-.406.126-.844.325-1.313.595v-1.203c.477-.188.922-.328 1.33-.422.413-.102.796-.156 1.14-.156.905 0 1.628.23 2.17.687.54.45.814 1.056.814 1.814 0 .355-.07.695-.202 1.015-.137.324-.383.702-.735 1.14-.105.117-.418.445-.937.984C3.992-2.723 3.254-1.97 2.296-1zm0 0"/></symbol></defs><g><path fill="#fff" d="M0 0h300v300H0z"/><path d="M252.75 216.805l-5.875-17.098" stroke-width="1.2" stroke="#3cc" stroke-miterlimit="10" fill="none"/><path d="M246.875 199.707l-5.87-17.102" stroke-width="1.2" stroke="#000" stroke-miterlimit="10" fill="none"/><path d="M248.75 207.805h9v18h-9zm0 0" fill="#fff"/><use xlink:href="#a" x="248.75" y="221.419" fill="#3cc"/><path d="M241.004 182.605l-35.488-6.93M239.086 173.563l-28.395-5.543M264.75 155.336l-23.746 27.27M205.516 175.676l-11.746-34.2M193.77 141.477l-16.637-7.08" stroke-width="1.2" stroke="#000" stroke-miterlimit="10" fill="none"/><path d="M177.133 134.398l-16.637-7.078" stroke-width="1.2" stroke="#00f" stroke-miterlimit="10" fill="none"/><path d="M217.516 114.207l-23.746 27.27M221.56 122.52l-18.998 21.816" stroke-width="1.2" stroke="#000" stroke-miterlimit="10" fill="none"/><path d="M160.496 127.32l1.59-18.01" stroke-width="1.2" stroke="#00f" stroke-miterlimit="10" fill="none"/><path d="M162.086 109.31l1.59-18.01" stroke-width="1.2" stroke="#000" stroke-miterlimit="10" fill="none"/><path d="M160.496 127.32l-15.508 9.297" stroke-width="1.2" stroke="#00f" stroke-miterlimit="10" fill="none"/><path d="M144.988 136.617l-15.504 9.3" stroke-width="1.2" stroke="#000" stroke-miterlimit="10" fill="none"/><path d="M155.496 118.32h11v18h-11zm0 0" fill="#fff"/><use xlink:href="#b" x="155.496" y="131.935" fill="#00f"/><path d="M163.676 91.3l35.242-8.105M169.11 98.78l28.19-6.483M198.918 83.195l18.598 31.012M217.516 114.207l35.488 6.926M253.004 121.133l11.746 34.203M246.133 127.316l9.394 27.364M129.484 145.918l-15.804-8.777" stroke-width="1.2" stroke="#000" stroke-miterlimit="10" fill="none"/><path d="M113.68 137.14l-15.81-8.78" stroke-width="1.2" stroke="#00f" stroke-miterlimit="10" fill="none"/><path d="M122.19 151.602l-12.643-7.024" stroke-width="1.2" stroke="#000" stroke-miterlimit="10" fill="none"/><path d="M109.547 144.578l-12.645-7.023" stroke-width="1.2" stroke="#00f" stroke-miterlimit="10" fill="none"/><path d="M130.086 182.074l-.602-36.156" stroke-width="1.2" stroke="#000" stroke-miterlimit="10" fill="none"/><path d="M97.87 128.36l-15.503 9.3" stroke-width="1.2" stroke="#00f" stroke-miterlimit="10" fill="none"/><path d="M82.367 137.66l-15.504 9.3" stroke-width="1.2" stroke="#000" stroke-miterlimit="10" fill="none"/><path d="M92.87 119.36h11v18h-11zm0 0" fill="#fff"/><use xlink:href="#b" x="92.871" y="132.974" fill="#00f"/><path d="M66.863 146.96l.3 18.075" stroke-width="1.2" stroke="#000" stroke-miterlimit="10" fill="none"/><path d="M67.164 165.035l.3 18.078" stroke-width="1.2" stroke="#00f" stroke-miterlimit="10" fill="none"/><path d="M75.43 150.434l.238 14.46" stroke-width="1.2" stroke="#000" stroke-miterlimit="10" fill="none"/><path d="M75.668 164.895l.242 14.464" stroke-width="1.2" stroke="#00f" stroke-miterlimit="10" fill="none"/><path d="M66.863 146.96l-15.808-8.78" stroke-width="1.2" stroke="#000" stroke-miterlimit="10" fill="none"/><path d="M51.055 138.18l-15.805-8.778M67.465 183.113l15.805 8.782" stroke-width="1.2" stroke="#00f" stroke-miterlimit="10" fill="none"/><path d="M83.27 191.895l15.804 8.777" stroke-width="1.2" stroke="#000" stroke-miterlimit="10" fill="none"/><path d="M62.465 174.113h11v18h-11zm0 0" fill="#fff"/><use xlink:href="#b" x="62.465" y="187.728" fill="#00f"/><path d="M99.074 200.672l31.012-18.598M97.8 191.516l24.81-14.88" stroke-width="1.2" stroke="#000" stroke-miterlimit="10" fill="none"/><path d="M5.25 118.402h30v22h-30zm0 0" fill="#fff"/><use xlink:href="#c" x="5.25" y="132.017" fill="#00f"/><use xlink:href="#d" x="16.282" y="136.899" fill="#00f"/><use xlink:href="#b" x="24.057" y="132.017" fill="#00f"/></g></svg>
